img/icons/Ai.svg

<svg width="56" height="56" viewBox="0 0 56 56" fill="none" xmlns="http://www.w3.org/2000/svg">
<circle cx="28" cy="28" r="22" fill="#C4C4C4" fill-opacity="0.4"/>
<path d="M41 41H16V16H41V41Z" fill="#FEC478"/>
<path d="M41 41H28.5V16H41V41Z" fill="#FEC478"/>
<path d="M39.5352 39.5352H17.4648V17.4648H39.5352V39.5352Z" fill="#994C0F"/>
<path d="M39.5352 39.5352H28.5V17.4648H39.5352V39.5352Z" fill="#994C0F"/>
<path d="M26.1318 24.8672H27.5615L30.7256 33.1875H29.0615L28.2881 31.1133H25.3818L24.6201 33.1875H22.9561L26.1318 24.8672ZM27.9951 29.9766L26.8467 26.707L25.6514 29.9766H27.9951Z" fill="#FEC478"/>
<path d="M31.4873 26.1914V24.6328H33.0576V26.1914H31.4873ZM31.4873 33.1875V27.0469H33.0576V33.1875H31.4873Z" fill="#FEC478"/>
<path d="M28.5 27.3347V31.6813L29.0616 33.1874H30.7257L28.5 27.3347Z" fill="#FEC478"/>
<path d="M2.62338 16.1667C0.0383901 21.7102 -0.660256 27.9477 0.634237 33.9258C1.92873 39.9039 5.14514 45.2936 9.79184 49.2712C14.4385 53.2488 20.2599 55.5954 26.3661 55.9523C32.4723 56.3092 38.5274 54.6568 43.6059 51.2477C48.6843 47.8386 52.5068 42.8603 54.489 37.0738C56.4712 31.2873 56.504 25.0109 54.5825 19.2039C52.661 13.3969 48.8908 8.37892 43.8483 4.91685C38.8058 1.45478 32.7683 -0.260865 26.6587 0.0321455L26.864 4.31213C32.0386 4.06396 37.1521 5.51706 41.423 8.44932C45.6938 11.3816 48.8871 15.6317 50.5145 20.55C52.142 25.4683 52.1142 30.7842 50.4353 35.6852C48.7565 40.5862 45.519 44.8027 41.2177 47.6901C36.9163 50.5775 31.7879 51.977 26.6161 51.6747C21.4444 51.3724 16.5139 49.3849 12.5783 46.016C8.64267 42.6471 5.91847 38.0822 4.82208 33.019C3.72569 27.9557 4.31742 22.6728 6.50682 17.9776L2.62338 16.1667Z" fill="#3B5999"/>
</svg>

<svg width="56" height="56" fill="none" xmlns="http://www.w3.org/2000/svg"><circle cx="28" cy="28" r="22" fill="#C4C4C4" fill-opacity=".4"/><path d="M41 41H16V16h25v25z" fill="#FEC478"/><path d="M41 41H28.5V16H41v25z" fill="#FEC478"/><path d="M39.535 39.535h-22.07v-22.07h22.07v22.07z" fill="#994C0F"/><path d="M39.535 39.535H28.5v-22.07h11.035v22.07z" fill="#994C0F"/><path d="M26.132 24.867h1.43l3.164 8.32H29.06l-.773-2.074h-2.906l-.762 2.075h-1.664l3.176-8.32zm1.863 5.11l-1.148-3.27-1.196 3.27h2.344zm3.492-3.786v-1.558h1.57v1.558h-1.57zm0 6.997v-6.141h1.57v6.14h-1.57z" fill="#FEC478"/><path d="M28.5 27.335v4.346l.562 1.506h1.664L28.5 27.335z" fill="#FEC478"/><path d="M2.623 16.167A28 28 0 1026.66.032l.205 4.28A23.715 23.715 0 116.507 17.978l-3.884-1.811z" fill="#3B5999"/></svg>
